images/header/offer-1.svg

<svg width="55" height="59" viewBox="0 0 55 59" fill="none" xmlns="http://www.w3.org/2000/svg">
<path d="M34.6551 29.4977C42.5634 29.4977 48.9743 23.0868 48.9743 15.1786C48.9743 7.27029 42.5634 0.859375 34.6551 0.859375C26.7469 0.859375 20.3359 7.27029 20.3359 15.1786C20.3359 23.0868 26.7469 29.4977 34.6551 29.4977Z" fill="#FCCF23"/>
<path d="M35.8156 14.1537V8.60677C36.3124 8.82999 36.7343 9.1918 37.0307 9.64882C37.327 10.1058 37.4852 10.6386 37.4863 11.1833C37.4863 11.4915 37.6088 11.7871 37.8267 12.0051C38.0446 12.223 38.3402 12.3454 38.6484 12.3454C38.9567 12.3454 39.2522 12.223 39.4702 12.0051C39.6881 11.7871 39.8106 11.4915 39.8106 11.1833C39.8085 10.0187 39.4127 8.8889 38.6874 7.97761C37.9622 7.06632 36.9501 6.42706 35.8156 6.16368V5.05005C35.8156 4.74184 35.6931 4.44625 35.4752 4.22831C35.2572 4.01038 34.9617 3.88794 34.6534 3.88794C34.3452 3.88794 34.0496 4.01038 33.8317 4.22831C33.6138 4.44625 33.4913 4.74184 33.4913 5.05005V6.16368C32.3561 6.42555 31.3431 7.06448 30.6177 7.9762C29.8924 8.88793 29.4975 10.0186 29.4975 11.1837C29.4975 12.3487 29.8924 13.4794 30.6177 14.3911C31.3431 15.3028 32.3561 15.9418 33.4913 16.2036V21.7506C32.9945 21.5273 32.5726 21.1655 32.2762 20.7085C31.9799 20.2515 31.8217 19.7187 31.8206 19.174C31.8206 18.8658 31.6981 18.5702 31.4802 18.3523C31.2622 18.1343 30.9667 18.0119 30.6584 18.0119C30.3502 18.0119 30.0546 18.1343 29.8367 18.3523C29.6188 18.5702 29.4963 18.8658 29.4963 19.174C29.4984 20.3387 29.8942 21.4684 30.6195 22.3797C31.3447 23.291 32.3568 23.9303 33.4913 24.1936V25.3073C33.4913 25.6155 33.6138 25.9111 33.8317 26.129C34.0496 26.347 34.3452 26.4694 34.6534 26.4694C34.9617 26.4694 35.2572 26.347 35.4752 26.129C35.6931 25.9111 35.8156 25.6155 35.8156 25.3073V24.1936C36.9508 23.9318 37.9638 23.2928 38.6891 22.3811C39.4145 21.4694 39.8094 20.3387 39.8094 19.1737C39.8094 18.0086 39.4145 16.8779 38.6891 15.9662C37.9638 15.0545 36.9508 14.4155 35.8156 14.1537ZM31.8206 11.1833C31.8217 10.6386 31.9799 10.1058 32.2762 9.64882C32.5726 9.1918 32.9945 8.82999 33.4913 8.60677V13.7592C32.9946 13.536 32.5728 13.1743 32.2765 12.7174C31.9802 12.2605 31.8219 11.7279 31.8206 11.1833ZM35.8156 21.7506V16.5968C36.313 16.8193 36.7354 17.181 37.0318 17.6382C37.3281 18.0955 37.4859 18.6287 37.4859 19.1737C37.4859 19.7186 37.3281 20.2518 37.0318 20.7091C36.7354 21.1664 36.313 21.5281 35.8156 21.7506Z" fill="#FCA40B"/>
<path d="M0.484375 34.8423H10.9314V57.6781H0.484375V34.8423Z" fill="url(#paint0_linear)"/>
<path d="M10.9302 38.9512C13.1529 37.3105 15.8354 36.4106 18.5979 36.379C21.3604 36.3475 24.0629 37.1858 26.3225 38.7753L26.5177 38.9127H33.5827C35.3263 38.9127 36.9984 39.6054 38.2313 40.8383C39.4643 42.0712 40.1569 43.7434 40.1569 45.4869L51.2155 37.0733C51.5728 36.8016 52.0092 36.6544 52.458 36.6543C52.8478 36.6542 53.2296 36.7651 53.5586 36.9741C53.8877 37.1831 54.1504 37.4814 54.3162 37.8342C54.4819 38.1871 54.5437 38.5798 54.4944 38.9664C54.4451 39.3531 54.2867 39.7178 54.0378 40.0177L42.3503 54.1118C40.9435 55.8081 39.0645 57.0482 36.9517 57.6748C34.8389 58.3014 32.5877 58.2863 30.4835 57.6313L17.9832 53.7419L10.9302 53.9411V38.9512Z" fill="#FABC91"/>
<path d="M40.1586 46.6484H27.3076C26.9994 46.6484 26.7038 46.526 26.4859 46.3081C26.2679 46.0901 26.1455 45.7945 26.1455 45.4863C26.1455 45.1781 26.2679 44.8825 26.4859 44.6646C26.7038 44.4467 26.9994 44.3242 27.3076 44.3242H40.1586C40.4668 44.3242 40.7624 44.4467 40.9803 44.6646C41.1982 44.8825 41.3207 45.1781 41.3207 45.4863C41.3207 45.7945 41.1982 46.0901 40.9803 46.3081C40.7624 46.526 40.4668 46.6484 40.1586 46.6484Z" fill="#FAA875"/>
<defs>
<linearGradient id="paint0_linear" x1="1.26122" y1="42.5115" x2="14.5423" y2="52.3783" gradientUnits="userSpaceOnUse">
<stop stop-color="#272671"/>
<stop offset="1" stop-color="#7BB3CB"/>
</linearGradient>
</defs>
</svg>

<svg width="55" height="59" fill="none" xmlns="http://www.w3.org/2000/svg"><path d="M34.655 29.498c7.908 0 14.32-6.411 14.32-14.32C48.974 7.27 42.562.86 34.654.86s-14.32 6.411-14.32 14.32c0 7.908 6.412 14.319 14.32 14.319Z" fill="#FCCF23"/><path d="M35.816 14.154V8.607a2.831 2.831 0 0 1 1.67 2.576 1.163 1.163 0 0 0 2.325 0 5.163 5.163 0 0 0-3.995-5.02V5.05a1.162 1.162 0 0 0-2.325 0v1.114a5.152 5.152 0 0 0 0 10.04v5.547a2.832 2.832 0 0 1-1.67-2.577 1.162 1.162 0 0 0-2.325 0 5.163 5.163 0 0 0 3.995 5.02v1.113a1.162 1.162 0 0 0 2.325 0v-1.113a5.151 5.151 0 0 0 0-10.04Zm-3.995-2.97a2.831 2.831 0 0 1 1.67-2.577v5.152a2.83 2.83 0 0 1-1.67-2.576Zm3.995 10.567v-5.154a2.823 2.823 0 0 1 0 5.154Z" fill="#FCA40B"/><path d="M.484 34.842h10.447v22.836H.484V34.842Z" fill="url(#a)"/><path d="M10.93 38.951a13.165 13.165 0 0 1 15.393-.176l.195.138h7.065a6.574 6.574 0 0 1 6.574 6.574l11.059-8.414a2.053 2.053 0 0 1 2.822 2.945L42.35 54.112a11.122 11.122 0 0 1-11.867 3.52l-12.5-3.89-7.053.2v-14.99Z" fill="#FABC91"/><path d="M40.159 46.648H27.308a1.162 1.162 0 1 1 0-2.324h12.85a1.162 1.162 0 0 1 0 2.324Z" fill="#FAA875"/><defs><linearGradient id="a" x1="1.261" y1="42.511" x2="14.542" y2="52.378" gradientUnits="userSpaceOnUse"><stop stop-color="#272671"/><stop offset="1" stop-color="#7BB3CB"/></linearGradient></defs></svg>
